src/assets/logos/logo-sanbase.svg

<svg width="38" height="38" viewBox="0 0 38 38" fill="none" xmlns="http://www.w3.org/2000/svg">
<circle cx="19" cy="19" r="18.5" fill="white" stroke="#E7EAF3"/>
<path d="M9 18.6476C9 18.096 9.13546 17.6822 9.40723 17.406C9.679 17.1299 10.0458 16.9922 10.5086 16.9922C10.9714 16.9922 11.3382 17.1307 11.61 17.406C11.8818 17.6822 12.0172 18.096 12.0172 18.6476C12.0172 19.2197 11.8818 19.6434 11.61 19.9188C11.3382 20.1941 10.9714 20.3326 10.5086 20.3326C10.0458 20.3326 9.679 20.1941 9.40723 19.9188C9.13546 19.6434 9 19.2197 9 18.6476Z" fill="#2F354D"/>
<path d="M15.5475 23.7137C15.9497 23.9503 16.4276 24.1523 16.9812 24.3196C17.534 24.487 18.1028 24.5711 18.6859 24.5711C19.3498 24.5711 19.9126 24.4078 20.3754 24.0805C20.8382 23.7533 21.0696 23.2232 21.0696 22.4895C21.0696 21.8753 20.9282 21.37 20.6472 20.9734C20.3653 20.5769 20.0086 20.2199 19.5761 19.9026C19.1436 19.586 18.6758 19.2942 18.1726 19.0287C17.6695 18.7633 17.2017 18.445 16.7692 18.0716C16.3367 17.6981 15.9791 17.2563 15.6981 16.746C15.4163 16.2349 15.2757 15.5869 15.2757 14.8012C15.2757 13.5441 15.6224 12.5968 16.3165 11.9579C17.0107 11.319 17.9917 11 19.2589 11C20.0834 11 20.7978 11.0742 21.4011 11.2218C22.0043 11.3693 22.5277 11.5721 22.9703 11.8277L22.3973 13.6018C22.0153 13.4047 21.5719 13.2423 21.0696 13.1137C20.5664 12.9859 20.0532 12.9216 19.5307 12.9216C18.8062 12.9216 18.2787 13.0692 17.9463 13.3652C17.614 13.6611 17.4482 14.1244 17.4482 14.7551C17.4482 15.2481 17.5887 15.6669 17.8706 16.0114C18.1525 16.3569 18.5092 16.6718 18.9417 16.9578C19.3742 17.2439 19.842 17.5341 20.3451 17.83C20.8474 18.126 21.3152 18.4755 21.7486 18.8795C22.181 19.2834 22.5378 19.7665 22.8196 20.3279C23.1015 20.8893 23.242 21.595 23.242 22.4417C23.242 22.994 23.1512 23.5158 22.9703 24.0088C22.7894 24.5018 22.5125 24.9305 22.1406 25.2949C21.7679 25.6601 21.306 25.9503 20.7524 26.1671C20.1987 26.3839 19.55 26.4927 18.8062 26.4927C17.9211 26.4927 17.1562 26.4086 16.5126 26.2413C15.8689 26.0739 15.3254 25.8522 14.8828 25.576L15.5475 23.7137Z" fill="#2F354D"/>
<path d="M25.9844 18.6476C25.9844 18.096 26.1198 17.6822 26.3916 17.406C26.6633 17.1299 27.0301 16.9922 27.4929 16.9922C27.9556 16.9922 28.3224 17.1307 28.5942 17.406C28.8659 17.6822 29.0014 18.096 29.0014 18.6476C29.0014 19.2197 28.8659 19.6434 28.5942 19.9188C28.3224 20.1941 27.9556 20.3326 27.4929 20.3326C27.0301 20.3326 26.6633 20.1941 26.3916 19.9188C26.1198 19.6434 25.9844 19.2197 25.9844 18.6476Z" fill="#2F354D"/>
</svg>

<svg width="38" height="38" fill="none" xmlns="http://www.w3.org/2000/svg"><circle cx="19" cy="19" r="18.5" fill="#fff" stroke="#E7EAF3"/><path d="M9 18.648c0-.552.135-.966.407-1.242.272-.276.639-.414 1.102-.414.462 0 .83.139 1.101.414.272.276.407.69.407 1.242 0 .572-.135.995-.407 1.27-.272.276-.639.415-1.101.415-.463 0-.83-.139-1.102-.414-.272-.276-.407-.7-.407-1.271zM15.547 23.714c.403.236.88.438 1.434.606a5.853 5.853 0 0 0 1.705.251c.664 0 1.227-.163 1.69-.49.462-.328.694-.858.694-1.591 0-.615-.142-1.12-.423-1.517a4.733 4.733 0 0 0-1.07-1.07c-.433-.317-.901-.609-1.404-.874a7.48 7.48 0 0 1-1.404-.957 4.788 4.788 0 0 1-1.07-1.326c-.283-.511-.423-1.16-.423-1.945 0-1.257.346-2.204 1.04-2.843.695-.639 1.676-.958 2.943-.958.824 0 1.539.074 2.142.222.603.147 1.127.35 1.57.606l-.574 1.774a6.31 6.31 0 0 0-1.327-.488 6.23 6.23 0 0 0-1.54-.192c-.724 0-1.251.147-1.584.443-.332.296-.498.76-.498 1.39 0 .493.14.912.423 1.256.282.346.638.66 1.07.947.433.286.901.576 1.404.872.502.296.97.646 1.404 1.05.432.403.789.887 1.07 1.448.283.561.423 1.267.423 2.114a4.51 4.51 0 0 1-.272 1.567c-.18.493-.457.921-.83 1.286a4.075 4.075 0 0 1-1.388.872c-.553.217-1.202.326-1.946.326-.885 0-1.65-.084-2.293-.252-.644-.167-1.188-.389-1.63-.665l.665-1.862zM25.984 18.648c0-.552.136-.966.408-1.242.271-.276.638-.414 1.1-.414.464 0 .83.139 1.102.414.272.276.407.69.407 1.242 0 .572-.135.995-.407 1.27-.272.276-.638.415-1.101.415-.463 0-.83-.139-1.101-.414-.272-.276-.408-.7-.408-1.271z" fill="#2F354D"/></svg>
